images/extension-icon.svg

<svg width="140" height="218" viewBox="0 0 140 218" fill="none" xmlns="http://www.w3.org/2000/svg">
<path d="M14.6836 16.2953C14.6836 9.26247 14.6836 5.74604 15.8689 3.74419C16.4072 2.83503 17.1111 2.13922 17.9477 1.67572C18.7315 1.2415 19.6317 1.01116 20.6215 1.00028C22.9478 0.974688 25.9931 2.7329 32.0838 6.24933L120.865 57.5071C126.956 61.0236 130.001 62.7818 132.327 65.4936C134.373 67.8789 136.037 70.7605 137.08 73.7253C138.265 77.0958 138.265 80.6123 138.265 87.6451L138.265 190.161C138.265 197.194 138.265 200.71 137.08 202.712C136.542 203.62 135.839 204.316 135.003 204.779C134.219 205.214 133.318 205.445 132.327 205.456C130.001 205.481 126.956 203.723 120.865 200.207L32.0838 148.949C25.9931 145.433 22.9478 143.674 20.6215 140.963C18.5752 138.577 16.9115 135.696 15.8689 132.731C14.6836 129.36 14.6836 125.844 14.6836 118.811L14.6836 16.2953Z" fill="#79EFBD" stroke="#0D0B33" stroke-width="1.85"/>
<path d="M2.75 140.003C3.79263 142.967 5.45631 145.849 7.5026 148.234L20.6219 140.962C18.5756 138.577 16.9119 135.695 15.8693 132.73L2.75 140.003Z" fill="#79EFBD" stroke="#0D0B33" stroke-width="1.85"/>
<path d="M2.74782 140.003C1.5625 136.632 1.5625 133.116 1.5625 126.083L14.6818 118.811C14.6818 125.843 14.6818 129.36 15.8671 132.73L2.74782 140.003Z" fill="#79EFBD" stroke="#0D0B33" stroke-width="1.85"/>
<path d="M18.9622 156.219L18.9623 156.22L32.0816 148.947L32.0815 148.947C25.9909 145.431 22.9456 143.673 20.6193 140.961L7.5 148.233C9.82631 150.945 12.8716 152.703 18.9622 156.219Z" fill="#79EFBD" stroke="#0D0B33" stroke-width="1.85"/>
<path d="M1.5625 23.5671L1.5625 126.083L14.6818 118.811L14.6818 16.2949L1.5625 23.5671Z" fill="#79EFBD" stroke="#0D0B33" stroke-width="1.85"/>
<path d="M18.9648 156.221L107.746 207.479L120.865 200.207L32.0841 148.949L18.9648 156.221Z" fill="#79EFBD" stroke="#0D0B33" stroke-width="1.85"/>
<path d="M5.0625 8.80469C3.87718 10.8065 2.5625 16.0346 2.5625 23.0674L19.0625 16.3047C19.0625 9.27184 17.8772 3.30654 19.0625 1.30469L5.0625 8.80469Z" fill="#79EFBD"/>
<path d="M4.0625 9.30469L19.0625 1.30469" stroke="#0D0B33" stroke-width="1.85" stroke-linejoin="round"/>
<mask id="mask0_7358_10611" style="mask-type:alpha" maskUnits="userSpaceOnUse" x="13" y="0" width="127" height="207">
<path d="M14.6836 16.2953C14.6836 9.26247 14.6836 5.74604 15.8689 3.74419C16.4072 2.83503 17.1111 2.13922 17.9477 1.67572C18.7315 1.2415 19.6317 1.01116 20.6215 1.00028C22.9478 0.974688 25.9931 2.7329 32.0838 6.24933L120.865 57.5071C126.956 61.0236 130.001 62.7818 132.327 65.4936C134.373 67.8789 136.037 70.7605 137.08 73.7253C138.265 77.0958 138.265 80.6123 138.265 87.6451L138.265 190.161C138.265 197.194 138.265 200.71 137.08 202.712C136.542 203.62 135.839 204.316 135.003 204.779C134.219 205.214 133.318 205.445 132.327 205.456C130.001 205.481 126.956 203.723 120.865 200.207L32.0838 148.949C25.9931 145.433 22.9478 143.674 20.6215 140.963C18.5752 138.577 16.9115 135.696 15.8689 132.731C14.6836 129.36 14.6836 125.844 14.6836 118.811L14.6836 16.2953Z" fill="#79EFBD" stroke="#0D0B33" stroke-width="1.85"/>
</mask>
<g mask="url(#mask0_7358_10611)">
<path d="M86.6552 -3.94636C113.633 17.2738 125.226 32.5879 140.398 65.1352L58.9572 112.789L15.8528 36.9885L86.6552 -3.94636Z" fill="#0D0B33"/>
<path d="M148.084 83.1601C151.077 95.2327 151.959 100.836 152.163 108.598L73.6488 152.146L61.7308 131.188L148.084 83.1601Z" fill="#0D0B33"/>
</g>
<path d="M133.563 205.568C134.748 203.567 136.063 198.338 136.063 191.306L119.563 198.068C119.563 205.101 120.748 211.067 119.562 213.068L133.563 205.568Z" fill="#79EFBD"/>
<path d="M135.562 204.305L121.563 212.305" stroke="#0D0B33" stroke-width="1.85" stroke-linejoin="round"/>
<rect width="142.7" height="142.7" rx="12.56" transform="matrix(0.866025 0.5 -2.20305e-08 1 1.5625 3.47461)" fill="white" stroke="#0D0B33" stroke-width="1.85"/>
<path d="M58.264 60.7378C55.8026 59.3167 53.442 59.0829 51.7015 60.0878L24.3618 75.8729C23.3263 76.4708 22.8086 77.7391 22.8086 79.3062C22.8086 80.8734 23.3264 82.7396 24.3619 84.5331L42.2784 115.565L42.2784 78.9398C42.2784 76.2064 44.1823 75.0898 46.5494 76.4565C56.55 82.2303 80.893 96.2848 84.2133 98.2018L103.683 86.9608L58.264 60.7378Z" fill="#0D0B33"/>
<path d="M42.2791 122.413L79.928 144.15C82.2952 145.517 84.2141 144.409 84.2141 141.675L84.2141 105.05L102.131 136.082C103.166 137.876 103.684 139.742 103.684 141.309C103.684 142.876 103.166 144.144 102.131 144.742L74.791 160.527C73.0505 161.532 70.6899 161.299 68.2284 159.877L22.8093 133.654L42.2791 122.413Z" fill="#0D0B33"/>
</svg>

<svg xmlns="http://www.w3.org/2000/svg" width="140" height="218" fill="none"><path fill="#79EFBD" stroke="#0D0B33" stroke-width="1.85" d="M14.684 16.295c0-7.033 0-10.549 1.185-12.55.538-.91 1.242-1.606 2.079-2.07.784-.433 1.684-.664 2.674-.675 2.326-.025 5.371 1.733 11.462 5.25l88.781 51.257c6.091 3.517 9.136 5.275 11.462 7.987a26.217 26.217 0 0 1 4.753 8.231c1.185 3.37 1.185 6.887 1.185 13.92v102.516c0 7.033 0 10.549-1.185 12.551-.538.908-1.241 1.604-2.077 2.067-.784.435-1.685.666-2.676.677-2.326.025-5.371-1.733-11.462-5.249l-88.781-51.258c-6.09-3.516-9.136-5.275-11.463-7.986a26.21 26.21 0 0 1-4.752-8.232c-1.185-3.371-1.185-6.887-1.185-13.92V16.295Z"/><path fill="#79EFBD" stroke="#0D0B33" stroke-width="1.85" d="M2.75 140.003a26.205 26.205 0 0 0 4.753 8.231l13.119-7.272a26.198 26.198 0 0 1-4.753-8.232L2.75 140.003ZM2.748 140.003c-1.186-3.371-1.186-6.887-1.186-13.92l13.12-7.272c0 7.032 0 10.549 1.185 13.919l-13.12 7.273Z"/><path fill="#79EFBD" stroke="#0D0B33" stroke-width="1.85" d="M18.962 156.219v.001l13.12-7.273c-6.091-3.516-9.136-5.274-11.463-7.986L7.5 148.233c2.326 2.712 5.372 4.47 11.462 7.986ZM1.563 23.567v102.516l13.119-7.272V16.295l-13.12 7.272ZM18.965 156.221l88.781 51.258 13.119-7.272-88.78-51.258-13.12 7.272Z"/><path fill="#79EFBD" d="M5.063 8.805c-1.186 2.002-2.5 7.23-2.5 14.262l16.5-6.762c0-7.033-1.186-12.998 0-15l-14 7.5Z"/><path stroke="#0D0B33" stroke-linejoin="round" stroke-width="1.85" d="m4.063 9.305 15-8"/><mask id="a" width="127" height="207" x="13" y="0" maskUnits="userSpaceOnUse" style="mask-type:alpha"><path fill="#79EFBD" stroke="#0D0B33" stroke-width="1.85" d="M14.684 16.295c0-7.033 0-10.549 1.185-12.55.538-.91 1.242-1.606 2.079-2.07.784-.433 1.684-.664 2.674-.675 2.326-.025 5.371 1.733 11.462 5.25l88.781 51.257c6.091 3.517 9.136 5.275 11.462 7.987a26.217 26.217 0 0 1 4.753 8.231c1.185 3.37 1.185 6.887 1.185 13.92v102.516c0 7.033 0 10.549-1.185 12.551-.538.908-1.241 1.604-2.077 2.067-.784.435-1.685.666-2.676.677-2.326.025-5.371-1.733-11.462-5.249l-88.781-51.258c-6.09-3.516-9.136-5.275-11.463-7.986a26.21 26.21 0 0 1-4.752-8.232c-1.185-3.371-1.185-6.887-1.185-13.92V16.295Z"/></mask><g fill="#0D0B33" mask="url(#a)"><path d="M86.655-3.946c26.978 21.22 38.571 36.534 53.743 69.081l-81.44 47.654-43.105-75.8L86.655-3.947ZM148.084 83.16c2.993 12.073 3.875 17.676 4.079 25.438l-78.514 43.548-11.918-20.958 86.353-48.028Z"/></g><path fill="#79EFBD" d="M133.563 205.568c1.185-2.001 2.5-7.23 2.5-14.262l-16.5 6.762c0 7.033 1.185 12.999-.001 15l14.001-7.5Z"/><path stroke="#0D0B33" stroke-linejoin="round" stroke-width="1.85" d="m135.562 204.305-13.999 8"/><rect width="142.7" height="142.7" fill="#fff" stroke="#0D0B33" stroke-width="1.85" rx="12.56" transform="matrix(.86603 .5 0 1 1.563 3.475)"/><path fill="#0D0B33" d="M58.264 60.738c-2.461-1.421-4.822-1.655-6.563-.65l-27.34 15.785c-1.035.598-1.552 1.866-1.552 3.433 0 1.567.517 3.434 1.553 5.227l17.916 31.032V78.94c0-2.734 1.904-3.85 4.271-2.483l37.664 21.745 19.47-11.241-45.419-26.223ZM42.28 122.413l37.648 21.737c2.367 1.367 4.286.259 4.286-2.475V105.05l17.917 31.032c1.035 1.794 1.553 3.66 1.553 5.227 0 1.567-.518 2.835-1.553 3.433l-27.34 15.785c-1.74 1.005-4.101.772-6.563-.65L22.81 133.654l19.47-11.241Z"/></svg>
